optimized/24/solid/folder-minus.svg

<svg xmlns="http://www.w3.org/2000/svg" viewBox="0 0 24 24">
  <path fill-rule="evenodd" d="M19.5 21C21.1569 21 22.5 19.6569 22.5 18V9C22.5 7.34315 21.1569 6 19.5 6H14.1213C13.9224 6 13.7316 5.92098 13.591 5.78033L11.4697 3.65901C11.0477 3.23705 10.4754 3 9.87868 3H4.5C2.84315 3 1.5 4.34315 1.5 6V18C1.5 19.6569 2.84315 21 4.5 21H19.5ZM9 12.75C8.58579 12.75 8.25 13.0858 8.25 13.5C8.25 13.9142 8.58579 14.25 9 14.25H15C15.4142 14.25 15.75 13.9142 15.75 13.5C15.75 13.0858 15.4142 12.75 15 12.75H9Z" clip-rule="evenodd"/>
</svg>

<svg xmlns="http://www.w3.org/2000/svg" viewBox="0 0 24 24" fill="currentColor" aria-hidden="true">
  <path fill-rule="evenodd" d="M19.5 21a3 3 0 003-3V9a3 3 0 00-3-3h-5.379a.75.75 0 01-.53-.22L11.47 3.66A2.25 2.25 0 009.879 3H4.5a3 3 0 00-3 3v12a3 3 0 003 3h15zM9 12.75a.75.75 0 000 1.5h6a.75.75 0 000-1.5H9z" clip-rule="evenodd"/>
</svg>
